X:28
T:De madrigale
C:Tielman Susato
B:Tielman Susato: Danserye (1551) no. 28
R:Branle
Z:Transcribed by Frank Nordberg - http://www.musicaviva.com
F:http://abc.musicaviva.com/tunes/susato-tielman/susato-1551-28.abc
%Posted at abcusers July 5th 2001 by Frank Nordberg
M:3/2 %org. time signature: C3
L:1/2
K:Gmix
V:1
C>DE|D>EF|C>DE|D3::E>DE|C>DE|F2E|D3:|
V:2
G,2C|B,2A,|A,2G,|G,3::C2C|CA,B,|DA,C|B,3:|
V:3
E,2E,|G,2F,|E,2C,|D,3::G,>F,G,|A,2G,|F,2G,|G,3:|
V:4
C,>B,,C,|G,,2D,|A,,>B,,C,|G,,3::C,2C,|F,2E,|D,2C,|G,,3:|
W:
W:
W:  From Musica Viva - http://www.musicaviva.com
W:  the Internet center for free sheet music downloads.
